!!!!SEGMENT: pl-kk--kk-i-178--001_anonim--hodie-simon-petrus.krn
!!!cenid: 17xx:2604
!!!COM: Anonim
!!!COM-rismID: pe30004985
!!!CDT:
!!!CNT:
!!!OTL: Hodie Simon Petrus
!!!PDT:
!!!AGN: Sacred
!!!YEC: Copyright 2022 Narodowy Instytut Fryderyka Chopina (https://polishscores.org)
!!!YEM: License CC-BY-4.0 (https://creativecommons.org/licenses/by/4.0)
!!!SMS-siglum: PL-Kk
!!!SMS-shelfmark: Kk.I.178
!!!SMS-variant:
!!!SMS-altvar:
!!!SMS-shelfwork: 001 W
!!!NIFC-rismSourceID: 1001151871
!!!NIFC-rismChildID: 1001151872
!!!NIFC-islandoraID: pl-kk:3862
!!!URL-pdf-islandora: https://repozytorium.nifc.pl/islandora/object/pl-kk:3862/datastream/PDF/view
!!!URL-scan: https://polish.musicsources.pl/pl/lokalizacje/galeria/rekopisy/5806/1 @EN{Scan on Polish Music Sources Website} @PL{Skany w portalu Dziedzictwo Muzyki Polskiej w otwartym dostępie}
!!!IIIF:
!!!ONB-nifc:
!!!AIN: 1 alto 1 bass 1 soprn 1 tenor
!!!key: C
**kern	**text	**kern	**text	**kern	**text	**kern	**text	**kern	**text
*part5	*part5	*part4	*part4	*part3	*part3	*part2	*part2	*part1	*part1
*staff5	*staff5	*staff4	*staff4	*staff3	*staff3	*staff2	*staff2	*staff1	*staff1
*IGripn	*	*	*	*	*	*	*	*	*
*	*	*ICvox	*	*ICvox	*	*ICvox	*	*ICvox	*
*	*	*Ibass	*	*Itenor	*	*Ialto	*	*Isoprn	*
*I"Baſso Ripieno.	*	*I"Baſso.	*	*I"Tenore	*	*I"Alto.	*	*I"Canto.	*
*I'B rip	*	*I'B	*	*I'T	*	*I'A	*	*I'S	*
*clefF4	*	*clefF4	*	*clefC4	*	*clefC3	*	*clefC1	*
*k[]	*	*k[]	*	*k[]	*	*k[]	*	*k[]	*
*C:	*	*C:	*	*C:	*	*C:	*	*C:	*
*M2/2	*	*M2/2	*	*M2/2	*	*M2/2	*	*M2/2	*
*met(c|)	*	*met(c|)	*	*met(c|)	*	*met(c|)	*	*met(c|)	*
=1	=1	=1	=1	=1	=1	=1	=1	=1	=1
*	*	*	*	*	*	*2\right	*	*	*
!!LO:TX:t=P:problem:oddech/cezura na różnej wysokości
1r	.	1r	.	0r	.	2.c/	Ho-	1r	.
.	.	.	.	.	.	4c/	-di-	.	.
=2	=2	=2	=2	=2	=2	=2	=2	=2	=2
*	*	*	*	*	*	*	*	*2\right	*
2r	.	2r	.	.	.	2d,\	-e	2.g\	Ho-
[2C/	Ho-	[2C/	Ho-	.	.	[<2e\	ho-	.	.
.	.	.	.	.	.	.	.	4g\	-di-
=3	=3	=3	=3	=3	=3	=3	=3	=3	=3
!LO:N:xstem:cue	!	!LO:N:xstem:cue	!	!	!	!LO:N:xstem:cue	!	!	!
4C/]	.	4C/]	.	1r	.	4e\]	.	(2.a\	-e
4C/	-di-	4C/	-di-	.	.	4e\	-di-	.	.
*2\right	*	*2\right	*	*	*	*	*	*	*
2D\	-e	2D\	-e	.	.	2f\	-e	.	.
.	.	.	.	.	.	.	.	4bn\)	.
=4	=4	=4	=4	=4	=4	=4	=4	=4	=4
1E	Si-	1E	Si-	2.G/	Ho-	4e\	.	2cc\	Si-
.	.	.	.	.	.	2g\	Si-	.	.
.	.	.	.	.	.	.	.	2b\	-mon
.	.	.	.	4G/	-di-	4g\	-mon	.	.
=5	=5	=5	=5	=5	=5	=5	=5	=5	=5
*	*	*	*	*2\right	*	*	*ij	*	*
2F\	.	2F\	.	(2.A\	-e	2f\	Si-	4r	.
.	.	.	.	.	.	.	.	4a\	Pe-
2D/	-mon	2D/	-mon	.	.	2f\	-mon	2dd\	.
*	*	*	*	*	*	*	*Xij	*	*
.	.	.	.	4B\)	.	.	.	.	.
=6	=6	=6	=6	=6	=6	=6	=6	=6	=6
4.C/	Pe-	4.C/	Pe-	2c\	Si-	4.e\	Pe-	2.g\	.
(8D/	.	8D/	.	.	.	8f\	.	.	.
4E/)	.	4E/	.	2c\	-mon	[<2g\	.	.	.
4C/	.	4C/	.	.	.	.	.	4a\	.
=7	=7	=7	=7	=7	=7	=7	=7	=7	=7
1G	.	1G	.	4d\	Pe-	2g\]	.	4bn\	.
.	.	.	.	4e\	.	.	.	2cc\	.
.	.	.	.	2d\	.	2g\	-trus	.	.
.	.	.	.	.	.	.	.	4b\	.
=8	=8	=8	=8	=8	=8	=8	=8	=8	=8
1C,	-trus	1C,	-trus	2e\,	-trus	(1g	as-	2cc,\	-trus
.	.	.	.	4E/	a-	.	.	4g/	a-
.	.	.	.	4F/	-scen-	.	.	4a/	.
=9	=9	=9	=9	=9	=9	=9	=9	=9	=9
1C	as-	1C	as-	2G/	.	1e)	-cen-	2g/	-scen-
.	.	.	.	4c\	.	.	.	[<2a\	.
.	.	.	.	4B\	.	.	.	.	.
=10	=10	=10	=10	=10	=10	=10	=10	=10	=10
1D	-cen-	1D	-cen-	4A\	.	2.f\	.	2a\]	.
.	.	.	.	8B\L	.	.	.	.	.
.	.	.	.	8c\J	.	.	.	.	.
.	.	.	.	4d\	.	.	.	2bn\	.
.	.	.	.	4c\	.	8e\L	.	.	.
.	.	.	.	.	.	8f\J	.	.	.
!	!	!	!	!	!	!	!	!LO:LB:g=original	!
=11	=11	=11	=11	=11	=11	=11	=11	=11	=11
1E	.	1E	.	4B\	.	2.g\	.	2b\	.
.	.	.	.	8c\L	.	.	.	.	.
.	.	.	.	8d\J	.	.	.	.	.
.	.	.	.	4e\	.	.	.	2cc\	.
.	.	.	.	4d\	.	8f\L	.	.	.
.	.	.	.	.	.	8g\J	.	.	.
!	!	!	!	!	!	!LO:LB:g=original	!	!	!
=12	=12	=12	=12	=12	=12	=12	=12	=12	=12
1F	-dit	1F,	-dit	(4c\	.	2a\	.	1a	.
.	.	.	.	4A\	.	.	.	.	.
.	.	.	.	4c\	.	2f,\	-dit	.	.
.	.	.	.	4d\)	.	.	.	.	.
*custos:E	*	*	*	*	*	*	*	*	*
!LO:LB:g=original	!	!	!	!LO:LB:g=original	!	!	!	!	!
=13	=13	=13	=13	=13	=13	=13	=13	=13	=13
1E	Cru-	1E	Cru-	2e\	-dit	2g\	as-	2g,\	-dit
.	.	.	.	4B,\	.	4e\	-cen-	2b\	as-
.	.	.	.	[<4e\	a-	[<4g\	.	.	.
=14	=14	=14	=14	=14	=14	=14	=14	=14	=14
1C,	-cis	1C	-cis	4e\]	.	4g\]	.	(4cc\	-cen-
.	.	.	.	4d\	-scen-	4f\	.	4dd\)	.
.	.	.	.	4c\	.	2e\	.	[<2een\	.
.	.	.	.	4B\	.	.	.	.	.
*	*	*custos:D	*	*	*	*	*	*	*
!	!	!LO:LB:g=original	!	!	!	!	!	!	!
=15	=15	=15	=15	=15	=15	=15	=15	=15	=15
!	!	!	!	!	!	!	!	!LO:N:xstem:cue	!
1D	pa-	1D	pa-	2A\	.	2.f\	-dit	4ee\]	.
.	.	.	.	.	.	.	.	8dd\L	.
.	.	.	.	.	.	.	.	8cc\J	.
.	.	.	.	2d,\	-dit	.	.	2dd\	.
.	.	.	.	.	.	4f\	.	.	.
=16	=16	=16	=16	=16	=16	=16	=16	=16	=16
1F	.	1F	.	2A\	in	1f	Cru-	2cc,\	-dit
.	.	.	.	[<2d\	Cru-	.	.	2a\	in
=17	=17	=17	=17	=17	=17	=17	=17	=17	=17
!	!	!	!	!LO:N:xstem:cue	!	!	!	!	!
2.E\	-ti-	2.E\	-ti-	4d\]	.	2c,/	-cis	1g	Cru-
.	.	.	.	4d\	-cis	.	.	.	.
*	*	*	*	*	*	*	*ij	*	*
.	.	.	.	2c#X\	pa-	[<2g\	Cru-	.	.
4E\	-bu-	4E\	-bu-	.	.	.	.	.	.
=18	=18	=18	=18	=18	=18	=18	=18	=18	=18
1D,	-lum	1D,	-lum	2.d\	-ti-	2g\]	.	2.a\	.
.	.	.	.	.	.	2f#X,\	-cis	.	.
*	*	*	*	*	*	*	*Xij	*	*
.	.	.	.	4c\	.	.	.	4dd\	.
=19	=19	=19	=19	=19	=19	=19	=19	=19	=19
1G	al-	1G	al-	4B\	.	1g	pa-	1dd,	-cis
.	.	.	.	8c\L	.	.	.	.	.
.	.	.	.	8d\J	.	.	.	.	.
.	.	.	.	[<2e\	.	.	.	.	.
=20	=20	=20	=20	=20	=20	=20	=20	=20	=20
1F	-le-	1F	-le-	2e\]	.	(4a\	.	2a\	pa-
.	.	.	.	.	.	4g\	.	.	.
.	.	.	.	2d\	.	4f\	.	[<2dd\	-ti-
.	.	.	.	.	.	8e\L)	.	.	.
.	.	.	.	.	.	8d\J	.	.	.
=21	=21	=21	=21	=21	=21	=21	=21	=21	=21
!	!	!	!	!	!	!	!	!LO:N:xstem:cue	!
1E	-lu-	1E	-lu-	2.B\	-bu-	4e\	.	4dd\]	.
.	.	.	.	.	.	4f\	.	4dd\	-bu-
.	.	.	.	.	.	[<2g\	.	2cc#X\,	-lum
.	.	.	.	8A/L	-lum	.	.	.	.
.	.	.	.	8G/J	.	.	.	.	.
!	!	!	!	!	!	!	!	!LO:LB:g=original	!
=22	=22	=22	=22	=22	=22	=22	=22	=22	=22
1D,	-ia.	1D,	-ia	(2.A\	.	2g\]	.	2dd\	pa-
.	.	.	.	.	.	2f\	-ti-	[<2a\	-ti-
.	.	.	.	4B,\)	.	.	.	.	.
=23	=23	=23	=23	=23	=23	=23	=23	=23	=23
!	!	!	!	!	!	!	!	!LO:N:xstem:cue	!
1A	Ho-	1A	Ho-	4c\	ho-	4e\	-bu-	4a\]	.
.	.	.	.	4d\	.	4e,\	-lum	4b\	-bu-
.	.	.	.	2e\	.	[<2a\	ho-	2cc#X\,	-lum
*	*	*	*	*custos:d	*	*custos:a	*	*	*
!	!	!	!	!LO:LB:g=original	!	!LO:LB:g=original	!	!	!
=24	=24	=24	=24	=24	=24	=24	=24	=24	=24
2.B-X\	.	2.B-X\	.	2.d\	.	2a\]	.	4dd\	ho-
.	.	.	.	.	.	.	.	4a\	.
.	.	.	.	.	.	2gn\	-di-	[<2dd\	.
4B-\	-di-	4B-\	-di-	8cT\L	-di-	.	.	.	.
.	.	.	.	8d\J	.	.	.	.	.
=25	=25	=25	=25	=25	=25	=25	=25	=25	=25
0A;<	-e	0A;<	-e	0e	-e	0a;<	-e	4dd\]	.
.	.	.	.	.	.	.	.	8cc#X\L	.
.	.	.	.	.	.	.	.	8b\J	.
.	.	.	.	.	.	.	.	2cc#X\	-di-
=26-	=26	=26-	=26	=26-	=26	=26-	=26	=26	=26
.	.	.	.	.	.	.	.	1cc#X;;	-e
=27||	=27||	=27||	=27||	=27||	=27||	=27||	=27||	=27||	=27||
*M3/2	*	*M3/2	*	*M3/2	*	*M3/2	*	*M3/2	*
2F\	Cla-	2F\	Cla-	2c\	Cla-	2a\	Cla-	2ffn\	Cla-
2C/	-vi-	2C/	-vi-	2c\	-vi-	2g\	-vi-	2ee\	-vi-
2D/	-cu-	2D/	-cu-	4A\	-cu-	2f\	-cu-	2dd\	-cu-
.	.	.	.	4B\	.	.	.	.	.
!LO:LB:g=original	!	!	!	!	!	!	!	!	!
=28	=28	=28	=28	=28	=28	=28	=28	=28	=28
2.C/	-la-	2.C/	-la-	2.c\	-la-	1g	-la-	2.een\	-la-
4C/	-ri-	4C/	-ri-	4B\	-ri-	.	.	4ee\	-vi-
2D\	-us	2D/	-us	2A/	-us	2f\	-ri-	(4dd\	-us
.	.	.	.	.	.	.	.	4ee\)	.
=29	=29	=29	=29	=29	=29	=29	=29	=29	=29
2D/	Re-	2D\	Re-	2A/	Re-	1f,	-us	1ff	Re-
2BB-X/	.	2BB-X/	.	1G	.	.	.	.	.
2C/	-gni	2C/	-gni	.	.	2g\	Re-	2ee\	-gni
!	!	!LO:LB:g=original	!	!	!	!	!	!	!
=30	=30	=30	=30	=30	=30	=30	=30	=30	=30
1F	gau-	1F	gau-	1F,	-gni	1a,	-gni	1ff	gau-
2A\	.	2A\	.	2c\	gau-	2c/	gau-	4ff\	.
.	.	.	.	.	.	.	.	4ee\	.
!	!	!	!	!	!	!	!	!LO:LB:g=original	!
=31	=31	=31	=31	=31	=31	=31	=31	=31	=31
2.G\	.	2.G\	.	2.B-X\	.	2.d\	.	4dd\	.
.	.	.	.	.	.	.	.	4cc\	.
.	.	.	.	.	.	.	.	2.b-X\	.
8A\L	.	8A\L	.	8c\L	.	4c\	.	.	.
8G\J	.	8G\J	.	8B-\J	.	.	.	.	.
4F\	.	4F\	.	4A/	.	4d\	.	.	.
4E\	.	4E\	.	4G/	.	4e\	.	4cc\	.
=32	=32	=32	=32	=32	=32	=32	=32	=32	=32
2.D\	.	2.D\	.	4F/	.	4f\	.	4dd\	.
.	.	.	.	4G/	.	4e\	.	4ee\	.
.	.	.	.	1A	.	4f\	.	4ff\	.
4E\	.	4E\	.	.	.	4g\	.	4ee\	.
4F\	.	4F\	.	.	.	2f\	.	2dd\	.
4G\	.	4G\	.	.	.	.	.	.	.
=33	=33	=33	=33	=33	=33	=33	=33	=33	=33
2A\	.	2A\	.	1A,	-dens	1e,	-dens	1cc#X,	-dent
2A,\	-dens	2A,\	-dens	.	.	.	.	.	.
2F\	mi-	2F\	mi-	2A/	mi-	2f\	mi-	2dd\	mi-
=34	=34	=34	=34	=34	=34	=34	=34	=34	=34
2E\	-gra-	2E\	-gra-	2Bn\	-gra-	2g\	-gra-	2een\	-gra-
2E,\	-vit	2E,\	-vit	2B,\	-vit	2f,\	-vit	2dd\,	-vit
*	*ij	*	*ij	*	*ij	*	*	*	*ij
2A\	mi-	2A\	mi-	2A/	mi-	2e\	mi-	2cc#X\	mi-
!	!	!	!	!	!	!LO:LB:g=original	!	!	!
=35	=35	=35	=35	=35	=35	=35	=35	=35	=35
1D	-gra-	1D	-gra-	1A	-gra-	2f\	-gra-	2dd\	-gra-
.	.	.	.	.	.	2e\,	-vit	2ccn,\	-vit
*	*	*	*	*	*	*	*	*	*Xij
2G\	-vit	2G,\	-vit	2B-X\	-vit	2d\	ad	2b-X\	ad
*	*Xij	*	*Xij	*	*Xij	*	*	*	*
!	!	!	!	!LO:LB:g=original	!	!	!	!	!
=36	=36	=36	=36	=36	=36	=36	=36	=36	=36
2F\	ad	2F\	ad	1A	ad	2f\	.	1dd	Chri-
2A\	Chri-	2A\	(Chris)-	.	.	1e	Chris-	.	.
2AA/	.	2AA/	-tum.	2A/	(Chris)-	.	.	2cc#X\	.
!LO:LB:g=original	!	!	!	!	!	!	!	!	!
=37-	=37	=37	=37	=37	=37	=37	=37	=37	=37
1.D;	-stum	1.D;,	.	1.A;	-tum	1.d;,	-tum	1.dd;,	-stum:
!	!	!LO:LB:g=original	!	!	!	!	!	!	!
=38||	=38||	=38||	=38||	=38||	=38||	=38||	=38||	=38||	=38||
2.A\	Ho-	2.A\	Ho-	2.A/	Ho-	2.e\	Ho-	2.cc#X\	Ho-
4A\	-di-	4A\	-di-	4A/	-di-	4e\	-di-	4cc#\	-di-
2D/	-e	2D/	-e	2A/	-e	2f\	-e	2dd\	-e
=39	=39	=39	=39	=39	=39	=39	=39	=39	=39
*	*ij	*	*ij	*	*ij	*	*ij	*	*ij
2.D\	Ho-	2.D\	Ho-	2.A/	Ho-	2.f\	Ho-	2.dd\	Ho-
4D\	-di-	4D\	-di-	4A/	-di-	4e\	-di-	4cc\	-di-
2G\	-e	2G\	-e	2Bn\	-e	2d\	-e	2bn\	-e
*	*Xij	*	*Xij	*	*Xij	*	*Xij	*	*Xij
!	!	!	!	!	!	!	!	!LO:LB:g=original	!
=40	=40	=40	=40	=40	=40	=40	=40	=40	=40
2E\	Pau-	2E\	Pau-	2G/	Pau-	2e\	Pau-	2bn\	Pau-
2A\	-lus	2A\	-l(us)	2A,/	-lus	2e,\	-lus	2ccn\	.
2E\	A-	2E\	A-	2G/	A-	2g\	A-	2cc\	-lus
=41	=41	=41	=41	=41	=41	=41	=41	=41	=41
2F\	-po-	2F\	-po-	(2A/	-po-	1d	-po-	2ff\	A-
2.G\	-sto-	2G\	-sto-	2.G/)	.	.	.	2.dd\	-po-
.	.	2GG/	-lus	.	.	2d\	-sto-	.	.
4GG/	.	.	.	4G/	-sto-	.	.	4dd\	-sto-
=42	=42	=42	=42	=42	=42	=42	=42	=42	=42
2C,/	-lus	2C,/	.	2G,/	-lus,	2e\,	-lus	2cc,\	-lus,
2c\	Lu-	2c\	Lu-	2G/	Lu-	2e\	Lu-	2cc\	Lu-
2A\	-men	2A\	-men	2A/	-men	2f#X\	-men	2cc\	-men
=43	=43	=43	=43	=43	=43	=43	=43	=43	=43
1G	Or-	1G	Or-	1Bn	or-	2.g\	Or-	(2.een\	Or-
.	.	.	.	.	.	4f\	.	4dd\)	.
2A\	-bis	2A\	-bis	2A/	-bis	2e,\	-bis	2cc#X\	.
=44	=44	=44	=44	=44	=44	=44	=44	=44	=44
2D\	.	2D\	.	1.A	ter-	2f\	ter-	2dd\	-bis
2A\	ter-	2A\	ter-	.	.	1e	.	2.dd\	ter-
2AA/	-rae	2AA/	-rae	.	.	.	.	.	.
.	.	.	.	.	.	.	.	4cc#X\	.
!	!	!	!	!	!	!LO:LB:g=original	!	!	!
=45	=45	=45	=45	=45	=45	=45	=45	=45	=45
2D,\	.	2D,\	.	2A,/	-rae	2d\,	-rae	2dd,\	-rae
2D\	in-	2D\	in-	2A/	in-	2f#X\	in-	2dd\	in-
2D\	-cli-	2D\	-cli-	2A/	-cli-	2f#\	-cli-	2dd\	-cli-
!LO:LB:g=original	!	!LO:LB:g=original	!	!	!	!	!	!	!
=46	=46	=46	=46	=46	=46	=46	=46	=46	=46
1G	-na-	1G	-na-	2Bn\	-na-	1g	-na-	1dd	-na-
.	.	.	.	4A\	.	.	.	.	.
.	.	.	.	4B\	.	.	.	.	.
2C/	-to	2C/	-to	2c\	.	2g\	-to	2ee-X\	-to
!	!	!	!	!LO:LB:g=original	!	!	!	!	!
=47	=47	=47	=47	=47	=47	=47	=47	=47	=47
!	!	!	!	!	!	!	!	!LO:SIC:v:s=2ee-\	!
2C/	.	2C/	.	2c,\	-to	1g	Ca-	2ee\	Ca-
2.D\	Ca-	2.D\	Ca-	2.A/	Ca-	.	.	2.dd\	-pi-
.	.	.	.	.	.	2f#X\	-pi-	.	.
4D\	-pi-	4D\	-pi-	4A/	-pi-	.	.	4dd\	-te
=48	=48	=48	=48	=48	=48	=48	=48	=48	=48
1GG,	-te	1GG,	-te	1Bn,	-te	1g,	-te	1dd,	.
2G\	pro	2G\	pro	2B\	pro	2g\	pro	2dd\	pro
!	!	!	!	!	!	!	!	!LO:LB:g=original	!
=49	=49	=49	=49	=49	=49	=49	=49	=49	=49
2E\	Chri-	2E\	Chri-	1B	(Chris)-	1g	Chris-	1een	Chri-
2C/	.	2C/	.	.	.	.	.	.	.
2F\	-sti	2F\	-sti	2A/	-ti	2fn\,	-ti	2ff\	-sti
=50	=50	=50	=50	=50	=50	=50	=50	=50	=50
1C	No-	1C	No-	2A/	No-	(2f\	No-	4a\	No-
.	.	.	.	.	.	.	.	4b\	.
.	.	.	.	4G/	.	4e\	.	2.cc\	.
.	.	.	.	4F/	.	4d\)	.	.	.
2C/	-mi-	2C/	-mi-	4G/	.	4e\	.	.	.
.	.	.	.	4A/	-mi-	4e\	-mi-	4cc\	-mi-
=51	=51	=51	=51	=51	=51	=51	=51	=51	=51
1F,	-ne	1F,	-ne	1F,	-ne	1fn,	-ne	1cc,	-ne
2F\	Mar-	2F\	Mar-	2A/	mar-	2f\	Mar-	2cc\	.
=52	=52	=52	=52	=52	=52	=52	=52	=52	=52
2.F\	-ty-	2.F\	-ty-	2.A\	-ty-	1f	-ty-	2.cc\	Mar-
4E\	-ri-	4E\	-ri-	4A\	-ri-	.	.	4cc\	-ty-
2D/	-o	2D/	-o	2Bn\	-o	2f\	-ri-	2dd\	-rio
=53	=53	=53	=53	=53	=53	=53	=53	=53	=53
2C/	.	2C/	Co-	1c	Co-	2e\,	-o	2een\	Co-
2C/	Co-	2C/	-ro-	.	.	2f\	co-	2ff\	-ro-
2BB-X/	-ro-	2BB-X/	-na-	2d\	-ro-	2g\	-ro-	2dd\	.
=54	=54	=54	=54	=54	=54	=54	=54	=54	=54
1D	-na-	1D	-tus	1A	-na-	1g	-na-	1dd	-na-
2D\	-t(us)	2D\	.	2A/	-tus	2f#X\	-tus	2dd,\	-tus
*	*	*	*	*	*	*custos:g	*	*	*
!LO:LB:g=original	!	!LO:LB:g=original	!	!	!	!LO:LB:g=original	!	!	!
=55	=55	=55	=55	=55	=55	=55	=55	=55	=55
2GG,/	est	2GG,/	est	2G,/	est:	2g,\	est.	2dd\	Co-
2E\	Co-	2En\	Co-	2c\	Co-	2g\	Co-	2een\	-ro-
2Eni\	-ro-	2E\	-ro-	2G/	-ro-	2g\	-ro-	2ee\	-na-
!	!	!	!	!LO:LB:g=original	!	!	!	!	!
=56	=56	=56	=56	=56	=56	=56	=56	=56	=56
(2.F\	-na-	(2.F\	-na-	2.A\	-na-	1fn	-na-	1dd	-t(us)
4G\	.	4G\)	.	4B\	.	.	.	.	.
2A\)	.	2A\	.	[<2c\	.	2e\	.	2cc\	.
=57	=57	=57	=57	=57	=57	=57	=57	=57	=57
2E\	.	2E\	.	2c\]	.	2g\	.	2een\	Co-
2G\	.	2G\	.	2c\	-tus	2.d\	.	2.dd\	-ro-
2GG/	-tus	2GG/	-tus	2B\	.	.	.	.	.
.	.	.	.	.	.	4d\	-tus	4g/	-na-
=58	=58	=58	=58	=58	=58	=58	=58	=58	=58
1C,	est	1C,	est.	1c,	est.	1e,	est:	1g	-t(us)
2C/	al-	2C/	al-	2c\	al-	4g\	.	2g/	.
.	.	.	.	.	.	4e\	.	.	.
!	!	!	!	!	!	!	!	!LO:LB:g=original	!
=59	=59	=59	=59	=59	=59	=59	=59	=59	=59
2G\	-le-	2G\	-le-	2G/	-le-	2d\	al-	2bn,\	est
4G\	.	4G\	.	2G/	-lu-	2d\	.	(2b\	al-
4F\	.	4F\	-lu-	.	.	.	.	.	.
2E\	-lu-	2E\	-ia	2G/	-ia	[<2e\	-le-	2cc\)	.
=60	=60	=60	=60	=60	=60	=60	=60	=60	=60
*	*	*	*ij	*	*ij	*	*	*	*
2C/,	-ia	2C/	al-	2G/	al-	2e\]	.	2cc\	-le-
*	*ij	*	*	*	*	*	*	*	*
2G\	al-	2G\	-le-	2.G/	-le-	2.d\	.	2.cc\	-lu-
2GG/	-le-	2GG/	-lu-	.	.	.	.	.	.
.	.	.	.	4G/	-lu-	4d\	-lu-	4b\	.
=61	=61	=61	=61	=61	=61	=61	=61	=61	=61
1C	-lu-	1C,	-ia	1G,	-ia	1c,	-ia	1cc,	-ia
*	*	*	*Xij	*	*Xij	*	*	*	*
2C/	-ia	2C/	al-	2G/	al-	2c/	al-	2cc\	.
*	*Xij	*	*	*	*	*	*	*	*
=62	=62	=62	=62	=62	=62	=62	=62	=62	=62
2.C/	-al-	2.C/	-le-	2c\	-le-	2.g\	-le-	2.ee\	al-
.	.	.	.	2c\	-lu-	.	.	.	.
4D\	.	4D\	.	.	.	4f\	.	4dd\	.
2E\	.	2E\	-lu-	2c\	-ia	2e\	.	2cc\	.
*	*	*custos:F	*	*	*	*	*	*	*
!	!	!LO:LB:g=original	!	!	!	!	!	!	!
=63	=63	=63	=63	=63	=63	=63	=63	=63	=63
*	*	*	*	*	*ij	*	*	*	*
2F\	-le-	2F\	.	2f\	al-	2a\	.	2cc\	-le-
2G\	-lu-	2G\	.	2.d\	-le-	2.g\	.	2cc\	-lu-
2GG/	.	2GG/	.	.	.	.	.	2b\	-ia
.	.	.	.	4d\	-lu-	4f\	-lu-	.	.
*custos:C	*	*	*	*	*	*	*	*	*
!LO:LB:g=original	!	!	!	!	!	!	!	!	!
=64	=64	=64	=64	=64	=64	=64	=64	=64	=64
2C/	-ia	2C/	-ia	2e\	-ia	2e\	-ia	2cc\	.
*	*	*	*	*	*Xij	*	*	*	*
2r	.	2r	.	2r	.	2r	.	2r	.
2C/	al-	2C/	al-	2G/	al-	4g\	al-	2cc\	al-
.	.	.	.	.	.	4e\	.	.	.
!	!	!	!	!LO:LB:g=original	!	!LO:LB:g=original	!	!	!
=65	=65	=65	=65	=65	=65	=65	=65	=65	=65
2G\	-le-	2G\	-le-	2G/	-le-	2d\	.	2.bn\	-le-
4G\	.	4G\	.	2G/	-lu-	2d\	-le-	.	.
4F\	.	4F\	.	.	.	.	.	4b\	-lu-
2E\	-lu-	2E\	-lu-	2G/	-ia	[<2e\	.	2cc\	-ia
=66	=66	=66	=66	=66	=66	=66	=66	=66	=66
*	*	*	*	*	*ij	*	*	*	*ij
2C,/	-ia	2C,/	-ia	2G/	al-	2e\]	.	2cc\	al-
*	*ij	*	*ij	*	*	*	*	*	*
2G\	al-	2G\	al-	2.G/	-le-	2.d\	-lu-	2.cc\	-le-
2GG/	-le-	2GG/	-le-	.	.	.	.	.	.
.	.	.	.	4G/	-lu-	4d\	-ia	4b\	-lu-
=67	=67	=67	=67	=67	=67	=67	=67	=67	=67
1C	-lu-	1C	-lu-	1G,	-ia	1c,	.	1cc,	-ia
*	*	*	*	*	*Xij	*	*	*	*Xij
2C/	-ia	2C,/	-ia	2G/	al-	2c/	al-	2cc\	al-
*	*Xij	*	*Xij	*	*	*	*	*	*
=68	=68	=68	=68	=68	=68	=68	=68	=68	=68
2.C/	al-	2.C/	al-	2c\	-le-	2.g\	-le-	2.ee\	-le-
.	.	.	.	2c\	-lu-	.	.	.	.
4D\	.	4D\	-le-	.	.	4f\	.	4dd\	.
2E\	.	2E\	-lu-	2c\	-ia	2e\	.	[2cc\	.
=69	=69	=69	=69	=69	=69	=69	=69	=69	=69
*	*	*	*	*	*ij	*	*	*	*
2F\	-le-	2F\	.	2f\	al-	2a\	.	2cc\]	.
2G\	-lu-	2G\	.	2.d\	-le-	2.g\	.	2cc\	.
2GG/	-ia	2GG/	-ia	.	.	.	.	2b\	-lu-
.	.	.	.	4d\	-lu-	4g\	-lu-	.	.
=70	=70	=70	=70	=70	=70	=70	=70	=70	=70
2C,/	.	2C,/	.	2e,\	-ia	2e,\	-ia	[<1.cc	-ia.
*	*	*	*	*	*Xij	*	*	*	*
2F\	al-	2F\	al-	2A/	al-	2f\	al-	.	.
2C/	-le-	2C/	-le-	2G/	-le-	2e\	-le-	.	.
=71	=71	=71	=71	=71	=71	=71	=71	=71	=71
1.F	-lu-	1.F	-lu-	1.A	-lu-	1.f	-lu-	1.cc]	.
=72	=72	=72-	=72	=72	=72	=72	=72	=72	=72
!	!	!	!	!	!	!LO:N:vis=0	!	!LO:N:vis=0	!
0.C;	-ia.	0.C;	-ia	0.G;	-ia.	0.e;	-ia.	0.cc;	.
==	==	==	==	==	==	==	==	==	==
*-	*-	*-	*-	*-	*-	*-	*-	*-	*-
!!!system-decoration: [(s1,s2,s3,s4)]s5
!!!RDF**kern: i = editorial accidental
!!!RDF**kern: > = above
!!!RDF**kern: < = below
!!!RDF**kern: N = linked
!!!RDF**kern: | = vertical stroke
!!!ENC: Andrzej Gręziak
!!!EED: Katarzyna Serwa
!!!END: 2024-04-11
!!!EEV: 2024-05-08
